src/assets/outline/FormatCircle.svg

<svg width="24" height="24" viewBox="0 0 24 24"  xmlns="http://www.w3.org/2000/svg">
<path d="M18.6498 8.95C16.6598 8.95 15.0498 7.33 15.0498 5.35C15.0498 4.54 15.3198 3.77 15.8198 3.13C15.8398 3.1 15.8698 3.08 15.8898 3.05C16.5698 2.22 17.5698 1.75 18.6498 1.75C20.6298 1.75 22.2498 3.37 22.2498 5.35C22.2498 6.46 21.7498 7.49 20.8698 8.18C20.2298 8.68 19.4598 8.95 18.6498 8.95ZM16.9498 4.12C16.6898 4.48 16.5498 4.9 16.5498 5.35C16.5498 6.51 17.4898 7.45 18.6498 7.45C19.1198 7.45 19.5698 7.29 19.9398 7C20.4498 6.6 20.7498 6 20.7498 5.35C20.7498 4.19 19.8098 3.25 18.6498 3.25C17.9998 3.25 17.3998 3.54 17.0098 4.05C16.9898 4.08 16.9698 4.1 16.9498 4.12Z" />
<path d="M5.35 8.95C4.54 8.95 3.77 8.68 3.13 8.18C2.25 7.49 1.75 6.46 1.75 5.35C1.75 3.37 3.37 1.75 5.35 1.75C6.46 1.75 7.49 2.25 8.18 3.13C8.68 3.77 8.95 4.54 8.95 5.35C8.95 7.33 7.33 8.95 5.35 8.95ZM5.35 3.25C4.19 3.25 3.25 4.19 3.25 5.35C3.25 6 3.54 6.6 4.06 7C4.43 7.29 4.88 7.45 5.35 7.45C6.51 7.45 7.45 6.51 7.45 5.35C7.45 4.88 7.29 4.43 7 4.06C6.6 3.54 6 3.25 5.35 3.25Z" />
<path d="M18.6498 22.2498C17.5698 22.2498 16.5698 21.7798 15.8898 20.9498C15.8598 20.9298 15.8398 20.8998 15.8198 20.8698C15.3198 20.2298 15.0498 19.4598 15.0498 18.6498C15.0498 16.6598 16.6698 15.0498 18.6498 15.0498C19.4598 15.0498 20.2298 15.3198 20.8698 15.8198C20.8998 15.8398 20.9198 15.8698 20.9498 15.8898C21.7798 16.5698 22.2498 17.5698 22.2498 18.6498C22.2498 20.6298 20.6298 22.2498 18.6498 22.2498ZM16.9498 19.8798C16.9698 19.8998 16.9898 19.9198 17.0098 19.9498C17.3998 20.4598 17.9998 20.7498 18.6498 20.7498C19.8098 20.7498 20.7498 19.8098 20.7498 18.6498C20.7498 17.9998 20.4598 17.3998 19.9498 17.0098C19.9198 16.9898 19.8998 16.9698 19.8798 16.9498C19.5198 16.6898 19.0998 16.5498 18.6498 16.5498C17.4898 16.5498 16.5498 17.4898 16.5498 18.6498C16.5498 19.0998 16.6898 19.5198 16.9498 19.8798Z" />
<path d="M5.35 22.2498C3.37 22.2498 1.75 20.6298 1.75 18.6498C1.75 17.5698 2.22 16.5698 3.05 15.8898C3.07 15.8598 3.1 15.8398 3.13 15.8198C3.77 15.3198 4.54 15.0498 5.35 15.0498C7.34 15.0498 8.95 16.6698 8.95 18.6498C8.95 19.4598 8.68 20.2298 8.18 20.8698C7.49 21.7498 6.46 22.2498 5.35 22.2498ZM4.12 16.9498C4.1 16.9698 4.08 16.9898 4.05 17.0098C3.54 17.3998 3.25 17.9998 3.25 18.6498C3.25 19.8098 4.19 20.7498 5.35 20.7498C6 20.7498 6.6 20.4598 7 19.9398C7.29 19.5698 7.45 19.1198 7.45 18.6498C7.45 17.4898 6.51 16.5498 5.35 16.5498C4.9 16.5498 4.48 16.6898 4.12 16.9498Z" />
<path d="M12 22.25C10.34 22.25 8.69 21.84 7.24 21.07C7.04 20.97 6.91 20.78 6.86 20.56C6.81 20.34 6.86 20.12 7 19.94C7.29 19.57 7.45 19.12 7.45 18.65C7.45 17.49 6.51 16.55 5.35 16.55C4.88 16.55 4.43 16.71 4.06 17C3.89 17.14 3.66 17.19 3.44 17.14C3.22 17.09 3.04 16.96 2.93 16.76C2.15 15.29 1.75 13.69 1.75 12C1.75 10.34 2.16 8.69 2.93 7.24C3.03 7.04 3.22 6.91 3.44 6.86C3.66 6.81 3.88 6.87 4.06 7C4.43 7.29 4.88 7.45 5.35 7.45C6.51 7.45 7.45 6.51 7.45 5.35C7.45 4.88 7.29 4.43 7 4.06C6.86 3.89 6.81 3.66 6.86 3.44C6.91 3.22 7.04 3.04 7.24 2.93C8.69 2.16 10.34 1.75 12 1.75C13.69 1.75 15.29 2.15 16.76 2.93C16.96 3.03 17.09 3.22 17.14 3.44C17.19 3.66 17.13 3.88 17 4.06C16.71 4.43 16.55 4.88 16.55 5.35C16.55 6.51 17.49 7.45 18.65 7.45C19.12 7.45 19.57 7.29 19.94 7C20.11 6.86 20.34 6.81 20.56 6.86C20.78 6.91 20.96 7.04 21.07 7.24C21.84 8.69 22.25 10.34 22.25 12C22.25 13.69 21.85 15.29 21.07 16.76C20.97 16.96 20.78 17.09 20.56 17.14C20.34 17.19 20.12 17.13 19.94 17C19.57 16.71 19.12 16.55 18.65 16.55C17.49 16.55 16.55 17.49 16.55 18.65C16.55 19.12 16.71 19.57 17 19.94C17.14 20.11 17.19 20.34 17.14 20.56C17.09 20.78 16.96 20.96 16.76 21.07C15.29 21.85 13.69 22.25 12 22.25ZM8.65 20.08C10.77 20.97 13.25 20.96 15.34 20.08C15.14 19.63 15.04 19.15 15.04 18.65C15.04 16.66 16.66 15.05 18.64 15.05C19.14 15.05 19.62 15.15 20.07 15.35C20.51 14.3 20.74 13.18 20.74 12C20.74 10.85 20.51 9.7 20.07 8.65C19.62 8.85 19.14 8.95 18.64 8.95C16.65 8.95 15.04 7.33 15.04 5.35C15.04 4.85 15.14 4.37 15.34 3.92C13.25 3.04 10.76 3.04 8.65 3.92C8.85 4.37 8.95 4.85 8.95 5.35C8.95 7.34 7.33 8.95 5.35 8.95C4.85 8.95 4.37 8.85 3.92 8.65C3.48 9.7 3.25 10.85 3.25 12C3.25 13.17 3.47 14.29 3.92 15.35C4.37 15.15 4.85 15.05 5.35 15.05C7.34 15.05 8.95 16.67 8.95 18.65C8.95 19.15 8.85 19.63 8.65 20.08Z" />
</svg>

<?xml version="1.0" encoding="UTF-8"?>
<svg width="24" height="24" viewBox="0 0 24 24" xmlns="http://www.w3.org/2000/svg">
 <path d="m18.65 8.95c-1.99 0-3.6-1.62-3.6-3.6 0-0.81 0.27-1.58 0.77-2.22 0.02-0.03 0.05-0.05 0.07-0.08 0.68-0.83 1.68-1.3 2.76-1.3 1.98 0 3.6 1.62 3.6 3.6 0 1.11-0.5 2.14-1.38 2.83-0.64 0.5-1.41 0.77-2.22 0.77zm-1.7-4.83c-0.26 0.36-0.4 0.78-0.4 1.23 0 1.16 0.94 2.1 2.1 2.1 0.47 0 0.92-0.16 1.29-0.45 0.51-0.4 0.81-1 0.81-1.65 0-1.16-0.94-2.1-2.1-2.1-0.65 0-1.25 0.29-1.64 0.8-0.02 0.03-0.04 0.05-0.06 0.07z"/>
 <path d="m5.35 8.95c-0.81 0-1.58-0.27-2.22-0.77-0.88-0.69-1.38-1.72-1.38-2.83 0-1.98 1.62-3.6 3.6-3.6 1.11 0 2.14 0.5 2.83 1.38 0.5 0.64 0.77 1.41 0.77 2.22 0 1.98-1.62 3.6-3.6 3.6zm0-5.7c-1.16 0-2.1 0.94-2.1 2.1 0 0.65 0.29 1.25 0.81 1.65 0.37 0.29 0.82 0.45 1.29 0.45 1.16 0 2.1-0.94 2.1-2.1 0-0.47-0.16-0.92-0.45-1.29-0.4-0.52-1-0.81-1.65-0.81z"/>
 <path d="m18.65 22.25c-1.08 0-2.08-0.47-2.76-1.3-0.03-0.02-0.05-0.05-0.07-0.08-0.5-0.64-0.77-1.41-0.77-2.22 0-1.99 1.62-3.6 3.6-3.6 0.81 0 1.58 0.27 2.22 0.77 0.03 0.02 0.05 0.05 0.08 0.07 0.83 0.68 1.3 1.68 1.3 2.76 0 1.98-1.62 3.6-3.6 3.6zm-1.7-2.37c0.02 0.02 0.04 0.04 0.06 0.07 0.39 0.51 0.99 0.8 1.64 0.8 1.16 0 2.1-0.94 2.1-2.1 0-0.65-0.29-1.25-0.8-1.64-0.03-0.02-0.05-0.04-0.07-0.06-0.36-0.26-0.78-0.4-1.23-0.4-1.16 0-2.1 0.94-2.1 2.1 0 0.45 0.14 0.87 0.4 1.23z"/>
 <path d="m5.35 22.25c-1.98 0-3.6-1.62-3.6-3.6 0-1.08 0.47-2.08 1.3-2.76 0.02-0.03 0.05-0.05 0.08-0.07 0.64-0.5 1.41-0.77 2.22-0.77 1.99 0 3.6 1.62 3.6 3.6 0 0.81-0.27 1.58-0.77 2.22-0.69 0.88-1.72 1.38-2.83 1.38zm-1.23-5.3c-0.02 0.02-0.04 0.04-0.07 0.06-0.51 0.39-0.8 0.99-0.8 1.64 0 1.16 0.94 2.1 2.1 2.1 0.65 0 1.25-0.29 1.65-0.81 0.29-0.37 0.45-0.82 0.45-1.29 0-1.16-0.94-2.1-2.1-2.1-0.45 0-0.87 0.14-1.23 0.4z"/>
 <path d="m12 22.25c-1.66 0-3.31-0.41-4.76-1.18-0.2-0.1-0.33-0.29-0.38-0.51s0-0.44 0.14-0.62c0.29-0.37 0.45-0.82 0.45-1.29 0-1.16-0.94-2.1-2.1-2.1-0.47 0-0.92 0.16-1.29 0.45-0.17 0.14-0.4 0.19-0.62 0.14s-0.4-0.18-0.51-0.38c-0.78-1.47-1.18-3.07-1.18-4.76 0-1.66 0.41-3.31 1.18-4.76 0.1-0.2 0.29-0.33 0.51-0.38s0.44 0.01 0.62 0.14c0.37 0.29 0.82 0.45 1.29 0.45 1.16 0 2.1-0.94 2.1-2.1 0-0.47-0.16-0.92-0.45-1.29-0.14-0.17-0.19-0.4-0.14-0.62s0.18-0.4 0.38-0.51c1.45-0.77 3.1-1.18 4.76-1.18 1.69 0 3.29 0.4 4.76 1.18 0.2 0.1 0.33 0.29 0.38 0.51s-0.01 0.44-0.14 0.62c-0.29 0.37-0.45 0.82-0.45 1.29 0 1.16 0.94 2.1 2.1 2.1 0.47 0 0.92-0.16 1.29-0.45 0.17-0.14 0.4-0.19 0.62-0.14s0.4 0.18 0.51 0.38c0.77 1.45 1.18 3.1 1.18 4.76 0 1.69-0.4 3.29-1.18 4.76-0.1 0.2-0.29 0.33-0.51 0.38s-0.44-0.01-0.62-0.14c-0.37-0.29-0.82-0.45-1.29-0.45-1.16 0-2.1 0.94-2.1 2.1 0 0.47 0.16 0.92 0.45 1.29 0.14 0.17 0.19 0.4 0.14 0.62s-0.18 0.4-0.38 0.51c-1.47 0.78-3.07 1.18-4.76 1.18zm-3.35-2.17c2.12 0.89 4.6 0.88 6.69 0-0.2-0.45-0.3-0.93-0.3-1.43 0-1.99 1.62-3.6 3.6-3.6 0.5 0 0.98 0.1 1.43 0.3 0.44-1.05 0.67-2.17 0.67-3.35 0-1.15-0.23-2.3-0.67-3.35-0.45 0.2-0.93 0.3-1.43 0.3-1.99 0-3.6-1.62-3.6-3.6 0-0.5 0.1-0.98 0.3-1.43-2.09-0.88-4.58-0.88-6.69 0 0.2 0.45 0.3 0.93 0.3 1.43 0 1.99-1.62 3.6-3.6 3.6-0.5 0-0.98-0.1-1.43-0.3-0.44 1.05-0.67 2.2-0.67 3.35 0 1.17 0.22 2.29 0.67 3.35 0.45-0.2 0.93-0.3 1.43-0.3 1.99 0 3.6 1.62 3.6 3.6 0 0.5-0.1 0.98-0.3 1.43z"/>
</svg>
